; generated by PrusaSlicer 2.4.0 on 2023-02-15 at 15:01:31 UTC

; 

; external perimeters extrusion width = 0.45mm
; perimeters extrusion width = 0.45mm
; infill extrusion width = 0.45mm
; solid infill extrusion width = 0.45mm
; top infill extrusion width = 0.40mm
; first layer extrusion width = 0.70mm

M107
M104 S200 ; set temperature
;TYPE:Custom
G28 ; home all axes
G1 Z5 F5000 ; lift nozzle
M109 S200 ; set temperature and wait for it to be reached
G21 ; set units to millimeters
G90 ; use absolute coordinates
M82 ; use absolute distances for extrusion
G92 E0
; Filament gcode
M107
;LAYER_CHANGE
;Z:0.35
;HEIGHT:0.35
G1 Z.35 F7800
G1 E-2 F2400
G92 E0
G1 X65.931 Y88.512 F7800
G1 E2 F2400
;TYPE:Skirt/Brim
;WIDTH:0.7
G1 F1800
G1 X68.389 Y87.189 E2.25384
G1 X70.442 Y86.74 E2.44492
G1 X72.82 Y86.555 E2.66184
G1 X122.297 Y86.555 E7.1608
G1 X123.327 Y86.635 E7.25475
G1 X125.415 Y86.964 E7.44686
G1 X127.318 Y87.568 E7.6285
G1 X129.259 Y88.97 E7.84618
G1 X130.535 Y90.875 E8.05472
G1 X131.085 Y93.102 E8.26327
G1 X130.843 Y95.382 E8.47181
G1 X129.838 Y97.444 E8.68035
G1 X128.19 Y99.039 E8.88889
G1 X126.097 Y99.977 E9.09744
G1 X124.476 Y100.178 E9.24598
G1 X70.229 Y100.178 E14.17863
G1 X67.97 Y99.781 E14.38718
G1 X65.982 Y98.638 E14.59572
G1 X64.503 Y96.885 E14.80426
G1 X63.71 Y94.733 E15.0128
G1 X63.698 Y92.44 E15.22135
G1 X64.469 Y90.28 E15.42989
G1 X65.892 Y88.558 E15.63298
G1 E13.63298 F2400
G92 E0
G1 X75.007 Y93.496 F7800
G1 E2 F2400
;TYPE:External perimeter
;WIDTH:0.251005
G1 F1800
G1 X74.801 Y93.465 E2.00535
;WIDTH:0.299398
G1 X74.314 Y93.441 E2.02126
;WIDTH:0.347792
G1 X73.827 Y93.417 E2.04061
;WIDTH:0.396185
G1 X73.34 Y93.393 E2.06339
;WIDTH:0.444578
G1 X72.853 Y93.368 E2.0896
;WIDTH:0.444577
G1 X72.066 Y93.383 E2.1319
;WIDTH:0.416057
G1 X71.683 Y93.407 E2.15095
;WIDTH:0.367383
G1 X71.3 Y93.431 E2.16728
;WIDTH:0.31871
G1 X71.101 Y93.452 E2.17438
;WIDTH:0.281955
G1 X70.901 Y93.473 E2.18042
;WIDTH:0.245199
G1 X70.702 Y93.493 E2.18538
G1 E.18538 F2400
G92 E0
G1 X99.932 Y93.505 F7800
G1 E2 F2400
;WIDTH:0.209199
G1 F1800
G1 X99.867 Y93.486 E2.00133
;WIDTH:0.254186
G1 X99.738 Y93.464 E2.00473
;WIDTH:0.299174
G1 X99.61 Y93.441 E2.00899
;WIDTH:0.344161
G1 X99.481 Y93.419 E2.0141
;WIDTH:0.389149
G1 X99.352 Y93.396 E2.02006
;WIDTH:0.41772
G1 X99.112 Y93.382 E2.03209
;WIDTH:0.446291
G1 X98.871 Y93.368 E2.04513
;WIDTH:0.446291
G1 X98.62 Y93.382 E2.05871
;WIDTH:0.417658
G1 X98.369 Y93.396 E2.07124
;WIDTH:0.389024
G1 X98.24 Y93.419 E2.0772
;WIDTH:0.344067
G1 X98.112 Y93.441 E2.08231
;WIDTH:0.299109
G1 X97.983 Y93.464 E2.08656
;WIDTH:0.254152
G1 X97.855 Y93.486 E2.08996
;WIDTH:0.209195
G1 X97.789 Y93.505 E2.09128
G1 E.09128 F2400
G92 E0
G1 X120.731 Y93.492 F7800
G1 E2 F2400
;WIDTH:0.254809
G1 F1800
G1 X121.052 Y93.467 E2.00842
;WIDTH:0.301175
G1 X121.374 Y93.443 E2.01902
;WIDTH:0.347541
G1 X121.695 Y93.419 E2.03179
;WIDTH:0.393907
G1 X122.016 Y93.395 E2.04673
;WIDTH:0.440273
G1 X122.337 Y93.371 E2.06385
;WIDTH:0.440272
G1 X122.647 Y93.395 E2.08035
;WIDTH:0.393906
G1 X122.956 Y93.419 E2.09476
;WIDTH:0.347541
G1 X123.266 Y93.443 E2.10707
;WIDTH:0.301176
G1 X123.576 Y93.467 E2.11729
;WIDTH:0.25481
G1 X123.885 Y93.492 E2.12541
;LAYER_CHANGE
;Z:0.65
;HEIGHT:0.3
G1 Z.65 F7800
G1 E.12541 F2400
G92 E0
G1 X77.041 Y93.691 F7800
G1 E2 F2400
;WIDTH:0.401029
G1 F600
G1 X76.775 Y93.65 E2.01133
;WIDTH:0.442852
G1 X75.975 Y93.529 E2.04953
;WIDTH:0.568324
G1 X75.708 Y93.489 E2.06648
G1 X74.27 Y93.554 F7800
;WIDTH:0.45
G1 F600
G1 X70.133 Y93.554 E2.26548
G1 X70.108 Y93.38 E2.27392
;TYPE:Overhang perimeter
;WIDTH:0.4
;HEIGHT:0.4
G1 F900
G1 X70.105 Y93.355 E2.27524
G1 X70.557 Y93.224 E2.29984
G1 X71.317 Y93.065 E2.34041
G1 X72.072 Y92.968 E2.38014
G1 X72.814 Y92.936 E2.41895
G1 X74.774 Y93.132 E2.52185
G1 X75.5 Y93.357 E2.5616
G1 X75.497 Y93.379 E2.56279
;TYPE:External perimeter
;WIDTH:0.45
;HEIGHT:0.3
G1 F600
G1 X75.47 Y93.554 E2.57126
G1 X74.33 Y93.554 E2.62609
G1 X74.054 Y93.217 F7800
G1 E.62609 F2400
G92 E0
G1 X69.896 Y93.483 F7800
G1 E2 F2400
;WIDTH:0.568161
G1 F600
G1 X69.117 Y93.621 E2.04971
;WIDTH:0.427477
G1 X68.857 Y93.667 E2.06165
;WIDTH:0.380582
G1 X68.598 Y93.713 E2.07205
G1 E.07205 F2400
G92 E0
G1 X71.078 Y93.337 F7800
G1 E2 F2400
;TYPE:Gap fill
;WIDTH:0.144632
G1 F600
G1 X71.218 Y93.322 E2.00141
;WIDTH:0.170883
G1 X71.358 Y93.308 E2.00328
;WIDTH:0.217788
G1 X71.727 Y93.284 E2.01036
;WIDTH:0.264693
G1 X72.096 Y93.261 E2.0196
;WIDTH:0.295249
G1 X72.805 Y93.245 E2.04001
;WIDTH:0.295247
G1 X72.879 Y93.249 E2.04213
;WIDTH:0.287938
G1 X73.312 Y93.271 E2.05423
;WIDTH:0.245548
G1 X73.745 Y93.292 E2.06403
;WIDTH:0.203159
G1 X74.178 Y93.314 E2.07154
;WIDTH:0.16077
G1 X74.612 Y93.335 E2.07676
G1 E.07676 F2400
G92 E0
G1 X97.605 Y93.554 F7800
G1 E2 F2400
;TYPE:External perimeter
;WIDTH:0.45
G1 F600
G1 X97.557 Y93.385 E2.00842
G1 X97.857 Y93.201 E2.02534
;TYPE:Overhang perimeter
;WIDTH:0.4
;HEIGHT:0.4
G1 F900
G1 X97.923 Y93.161 E2.0294
G1 X98.383 Y92.995 E2.05495
G1 X98.889 Y92.941 E2.08151
G1 X99.337 Y92.994 E2.10507
G1 X99.798 Y93.161 E2.1307
G1 X99.864 Y93.201 E2.13476
;TYPE:External perimeter
;WIDTH:0.45
;HEIGHT:0.3
G1 F600
G1 X100.164 Y93.385 E2.15167
G1 X100.117 Y93.554 E2.1601
G1 X97.665 Y93.554 E2.27803
G1 X97.66 Y93.387 F7800
G1 X98.065 Y93.338
;TYPE:Gap fill
;WIDTH:0.159873
G1 F600
G1 X98.192 Y93.316 E2.27957
;WIDTH:0.201366
G1 X98.32 Y93.294 E2.28178
;WIDTH:0.242859
G1 X98.447 Y93.272 E2.28466
;WIDTH:0.289529
G1 X98.887 Y93.248 E2.29703
;WIDTH:0.289527
G1 X99.271 Y93.271 E2.30784
;WIDTH:0.243958
G1 X99.4 Y93.293 E2.31076
;WIDTH:0.202099
G1 X99.528 Y93.316 E2.313
;WIDTH:0.16024
G1 X99.657 Y93.338 E2.31456
G1 E.31456 F2400
G92 E0
G1 X120.081 Y93.554 F7800
G1 E2 F2400
;TYPE:External perimeter
;WIDTH:0.45
G1 F600
G1 X120.039 Y93.375 E2.00883
G1 X120.165 Y93.313 E2.01559
;TYPE:Overhang perimeter
;WIDTH:0.4
;HEIGHT:0.4
G1 F900
G1 X120.279 Y93.256 E2.02222
G1 X122.297 Y92.939 E2.12895
G1 X124.316 Y93.256 E2.23569
G1 X124.429 Y93.313 E2.24232
;TYPE:External perimeter
;WIDTH:0.45
;HEIGHT:0.3
G1 F600
G1 X124.555 Y93.375 E2.24908
G1 X124.514 Y93.554 E2.25791
G1 X120.141 Y93.554 E2.4682
G1 X120.145 Y93.382 F7800
G1 X121.174 Y93.336
;TYPE:Gap fill
;WIDTH:0.161251
G1 F600
G1 X121.455 Y93.314 E2.4716
;WIDTH:0.204121
G1 X121.736 Y93.292 E2.47651
;WIDTH:0.246991
G1 X122.017 Y93.27 E2.48293
;WIDTH:0.289861
G1 X122.297 Y93.248 E2.49085
;WIDTH:0.289862
G1 X122.33 Y93.251 E2.49178
;WIDTH:0.284684
G1 X122.603 Y93.272 E2.49929
;WIDTH:0.243108
G1 X122.875 Y93.293 E2.50538
;WIDTH:0.201532
G1 X123.148 Y93.315 E2.51006
;WIDTH:0.159956
G1 X123.42 Y93.336 E2.51332
;LAYER_CHANGE
;Z:0.95
;HEIGHT:0.3
G1 Z.95 F7800
G1 E.51332 F2400
G92 E0
G1 X75.02 Y93.179 F7800
G1 E2 F2400
;TYPE:Perimeter
;WIDTH:0.45
G1 F900
G1 X74.99 Y93.376 E2.00957
G1 X70.659 Y93.376 E2.21789
G1 X70.638 Y93.169 E2.22792
G1 X71.381 Y93.013 E2.26446
G1 X72.104 Y92.921 E2.29952
G1 X72.803 Y92.89 E2.33314
G1 X74.697 Y93.079 E2.42468
G1 X74.963 Y93.162 E2.43809
G1 E.43809 F2400
G92 E0
G1 X77.16 Y93.762 F7800
G1 E2 F2400
;TYPE:External perimeter
G1 F900
G1 X68.42 Y93.762 E2.42034
G1 X68.381 Y93.578 E2.42936
G1 X69.021 Y93.295 E2.463
G1 X69.792 Y93.013 E2.50248
G1 X70.557 Y92.791 E2.5408
G1 X71.268 Y92.643 E2.57573
;TYPE:Overhang perimeter
;WIDTH:0.4
;HEIGHT:0.4
G1 X72.072 Y92.536 E2.61808
G1 X72.814 Y92.504 E2.65689
G1 X74.799 Y92.707 E2.76116
;TYPE:External perimeter
;WIDTH:0.45
;HEIGHT:0.3
G1 X76.617 Y93.271 E2.85272
G1 X77.204 Y93.587 E2.88477
G1 X77.174 Y93.704 E2.89055
G1 X76.772 Y93.665 F7800
G1 X76.688 Y93.532
;TYPE:Gap fill
;WIDTH:0.236094
G1 F1200
G1 X76.475 Y93.5 E2.89516
;WIDTH:0.28353
G1 X76.261 Y93.468 E2.90105
;WIDTH:0.330965
G1 X76.048 Y93.436 E2.90822
;WIDTH:0.378401
G1 X75.835 Y93.403 E2.91666
;WIDTH:0.425837
G1 X75.196 Y93.307 E2.94581
G1 X73.281 Y93.158 F7800
;WIDTH:0.152205
G1 F1200
G1 X72.914 Y93.139 E2.94984
;WIDTH:0.163901
G1 X72.796 Y93.134 E2.9513
;WIDTH:0.163903
G1 X72.124 Y93.148 E2.95965
;WIDTH:0.134911
G1 X71.967 Y93.158 E2.96103
G1 X70.458 Y93.3 F7800
;WIDTH:0.535225
G1 F1200
G1 X69.911 Y93.378 E2.99344
;WIDTH:0.446515
G1 X69.756 Y93.405 E3.00095
;WIDTH:0.399207
G1 X69.601 Y93.433 E3.00754
;WIDTH:0.351899
G1 X69.445 Y93.461 E3.01319
;WIDTH:0.304591
G1 X69.29 Y93.488 E3.01792
;WIDTH:0.257284
G1 X69.135 Y93.516 E3.02171
;WIDTH:0.209976
G1 X68.98 Y93.543 E3.02457
G1 E1.02457 F2400
G92 E0
G1 X98.071 Y93.09 F7800
G1 E2 F2400
;TYPE:Perimeter
;WIDTH:0.45
G1 F900
G1 X98.468 Y92.941 E2.02041
G1 X98.902 Y92.898 E2.04137
G1 X99.247 Y92.939 E2.05809
G1 X99.63 Y93.078 E2.07767
G1 X99.842 Y93.208 E2.08963
G1 X99.795 Y93.376 E2.09805
G1 X97.927 Y93.376 E2.18789
G1 X97.879 Y93.208 E2.19632
G1 X98.02 Y93.121 E2.20425
G1 X97.605 Y93.762 F7800
;TYPE:External perimeter
G1 F900
G1 X96.729 Y93.762 E2.24636
G1 X97.055 Y93.375 E2.27066
G1 X97.478 Y93.001 E2.29785
G1 X97.923 Y92.728 E2.32295
G1 X98.366 Y92.568 E2.3456
;TYPE:Overhang perimeter
;WIDTH:0.4
;HEIGHT:0.4
G1 X98.586 Y92.542 E2.35714
;TYPE:External perimeter
;WIDTH:0.45
;HEIGHT:0.3
G1 X98.885 Y92.512 E2.37163
;TYPE:Overhang perimeter
;WIDTH:0.4
;HEIGHT:0.4
G1 X99.355 Y92.568 E2.39635
;TYPE:External perimeter
;WIDTH:0.45
;HEIGHT:0.3
G1 X99.798 Y92.728 E2.41899
G1 X100.243 Y93.001 E2.4441
G1 X100.667 Y93.375 E2.47129
G1 X100.992 Y93.762 E2.49559
G1 X97.665 Y93.762 E2.65563
G1 X97.39 Y93.424 F7800
G1 X98.503 Y93.158
;TYPE:Gap fill
;WIDTH:0.155095
G1 F1200
G1 X98.9 Y93.138 E2.66013
;WIDTH:0.155093
G1 X99.196 Y93.156 E2.66349
;WIDTH:0.11994
G1 X99.227 Y93.161 E2.66371
G1 E.66371 F2400
G92 E0
G1 X120.607 Y93.163 F7800
G1 E2 F2400
;TYPE:Perimeter
;WIDTH:0.45
G1 F900
G1 X122.297 Y92.897 E2.08232
G1 X123.988 Y93.163 E2.16464
G1 X123.971 Y93.376 E2.17493
G1 X120.623 Y93.376 E2.33596
G1 X120.611 Y93.223 E2.34336
G1 X118.784 Y93.762 F7800
;TYPE:External perimeter
G1 F900
G1 X118.743 Y93.583 E2.35219
G1 X120.273 Y92.827 E2.43426
;TYPE:Overhang perimeter
;WIDTH:0.4
;HEIGHT:0.4
G1 X122.297 Y92.506 E2.54137
G1 X124.322 Y92.827 E2.64848
;TYPE:External perimeter
;WIDTH:0.45
;HEIGHT:0.3
G1 X125.852 Y93.583 E2.73055
G1 X125.81 Y93.762 E2.73938
G1 X118.844 Y93.762 E3.07442
G1 X118.849 Y93.59 F7800
G1 E1.07442 F2400
G92 E0
G1 X122.035 Y93.158 F7800
G1 E2 F2400
;TYPE:Gap fill
;WIDTH:0.155281
G1 F1200
G1 X122.297 Y93.138 E2.00299
;WIDTH:0.155281
G1 X122.35 Y93.142 E2.00359
;WIDTH:0.146997
G1 X122.56 Y93.158 E2.00576
M106 S242.25
;LAYER_CHANGE
;Z:1.25
;HEIGHT:0.3
G1 Z1.25 F7800
G1 E.00576 F2400
G92 E0
G1 X74.14 Y92.979 F7800
G1 E2 F2400
;TYPE:Perimeter
;WIDTH:0.45
G1 F900
G1 X74.129 Y93.199 E2.01059
G1 X71.323 Y93.199 E2.14556
G1 X71.301 Y92.991 E2.15559
G1 X72.137 Y92.873 E2.19619
G1 X72.792 Y92.844 E2.22771
G1 X74.08 Y92.973 E2.28998
G1 X74.118 Y92.589 F7800
G1 F900
G1 X74.697 Y92.647 E2.31793
G1 X76.467 Y93.195 E2.40709
G1 X76.864 Y93.409 E2.42878
G1 X76.82 Y93.584 E2.43745
G1 X68.797 Y93.584 E2.82333
G1 X68.758 Y93.401 E2.83235
G1 X69.166 Y93.221 E2.85377
G1 X69.912 Y92.947 E2.89199
G1 X70.65 Y92.733 E2.92897
G1 X71.381 Y92.58 E2.96488
G1 X72.104 Y92.488 E2.99994
G1 X72.803 Y92.458 E3.03357
G1 X74.059 Y92.583 E3.09428
G1 E1.09428 F2400
G92 E0
G1 X78.347 Y93.97 F7800
G1 E2 F2400
;TYPE:External perimeter
G1 F900
G1 X67.187 Y93.97 E2.53674
G1 X67.141 Y93.799 E2.54524
G1 X67.467 Y93.608 E2.56343
G1 X68.246 Y93.206 E2.6056
G1 X69.021 Y92.863 E2.64636
G1 X69.792 Y92.58 E2.68583
G1 X70.557 Y92.359 E2.72416
G1 X71.268 Y92.21 E2.75909
;TYPE:Overhang perimeter
;WIDTH:0.4
;HEIGHT:0.4
M106 S255
G1 X72.072 Y92.104 E2.80144
G1 X72.814 Y92.072 E2.84024
G1 X74.799 Y92.275 E2.94452
M106 S242.25
;TYPE:External perimeter
;WIDTH:0.45
;HEIGHT:0.3
G1 X76.617 Y92.838 E3.03607
G1 X78.391 Y93.795 E3.133
G1 X78.362 Y93.912 E3.13879
G1 X77.954 Y93.893 F7800
G1 E1.13879 F2400
G92 E0
G1 X76.297 Y93.368 F7800
G1 E2 F2400
;TYPE:Gap fill
;WIDTH:0.1642
G1 F1200
G1 X76.143 Y93.345 E2.00194
;WIDTH:0.210019
G1 X75.99 Y93.322 E2.00476
;WIDTH:0.255839
G1 X75.836 Y93.299 E2.00847
;WIDTH:0.301658
G1 X75.682 Y93.275 E2.01308
;WIDTH:0.347478
G1 X75.528 Y93.252 E2.01857
;WIDTH:0.393297
G1 X75.374 Y93.229 E2.02495
;WIDTH:0.439116
G1 X74.913 Y93.159 E2.04675
;WIDTH:0.576575
G1 X74.759 Y93.136 E2.05669
;WIDTH:0.622394
G1 X74.606 Y93.112 E2.06751
;WIDTH:0.622394
G1 X74.394 Y92.81 E2.09317
G1 E.09317 F2400
G92 E0
G1 X71.12 Y93.115 F7800
G1 E2 F2400
;WIDTH:0.566061
G1 F1200
G1 X70.458 Y93.195 E2.04173
;WIDTH:0.45799
G1 X70.31 Y93.216 E2.04908
;WIDTH:0.415982
G1 X70.162 Y93.237 E2.05565
;WIDTH:0.373975
G1 X70.013 Y93.258 E2.06143
;WIDTH:0.331967
G1 X69.888 Y93.28 E2.06569
;WIDTH:0.289249
G1 X69.762 Y93.302 E2.06927
;WIDTH:0.246532
G1 X69.637 Y93.325 E2.07216
;WIDTH:0.203815
G1 X69.511 Y93.347 E2.07438
;WIDTH:0.161097
G1 X69.385 Y93.369 E2.07592
G1 E.07592 F2400
G92 E0
G1 X98.807 Y92.856 F7800
G1 E2 F2400
;TYPE:Perimeter
;WIDTH:0.45
G1 F900
G1 X99.158 Y92.885 E2.01695
G1 X99.497 Y93.007 E2.03429
G1 X99.464 Y93.199 E2.04364
G1 X98.258 Y93.199 E2.10163
G1 X98.224 Y93.007 E2.11098
G1 X98.564 Y92.885 E2.12833
G1 X98.747 Y92.863 E2.13723
G1 X97.205 Y93.584 F7800
G1 F900
G1 X97.019 Y93.584 E2.14618
G1 X97.331 Y93.213 E2.16952
G1 X97.708 Y92.88 E2.19373
G1 X98.091 Y92.645 E2.21532
G1 X98.474 Y92.507 E2.2349
G1 X98.861 Y92.461 E2.25362
G1 X99.247 Y92.507 E2.27235
G1 X99.63 Y92.645 E2.29192
G1 X100.013 Y92.88 E2.31352
G1 X100.39 Y93.213 E2.33772
G1 X100.703 Y93.584 E2.36107
G1 X97.265 Y93.584 E2.52643
G1 X97.605 Y93.97 F7800
;TYPE:External perimeter
G1 F900
G1 X96.298 Y93.97 E2.58926
G1 X96.659 Y93.413 E2.62117
G1 X97.055 Y92.943 E2.65072
G1 X97.478 Y92.568 E2.67792
G1 X97.923 Y92.296 E2.70302
G1 X98.366 Y92.136 E2.72566
;TYPE:Overhang perimeter
;WIDTH:0.4
;HEIGHT:0.4
M106 S255
G1 X98.861 Y92.073 E2.75171
G1 X99.355 Y92.136 E2.77775
M106 S242.25
;TYPE:External perimeter
;WIDTH:0.45
;HEIGHT:0.3
G1 X99.798 Y92.296 E2.8004
G1 X100.243 Y92.568 E2.8255
G1 X100.667 Y92.943 E2.8527
G1 X101.063 Y93.413 E2.88225
G1 X101.423 Y93.97 E2.91416
G1 X97.665 Y93.97 E3.09492
G1 X97.387 Y93.635 F7800
G1 E1.09492 F2400
G92 E0
G1 X121.467 Y92.985 F7800
G1 E2 F2400
;TYPE:Perimeter
G1 F900
G1 X122.297 Y92.855 E2.04043
G1 X123.128 Y92.985 E2.08087
G1 X123.111 Y93.199 E2.09116
G1 X121.484 Y93.199 E2.16944
G1 X121.472 Y93.045 E2.17684
G1 E.17684 F2400
G92 E0
G1 X119.291 Y93.31 F7800
G1 E2 F2400
G1 F900
G1 X120.397 Y92.763 E2.05933
G1 X122.297 Y92.464 E2.15185
G1 X124.197 Y92.763 E2.24436
G1 X125.498 Y93.405 E2.3141
G1 X125.456 Y93.584 E2.32293
G1 X119.139 Y93.584 E2.62675
G1 X119.097 Y93.405 E2.63558
G1 X119.237 Y93.336 E2.6431
G1 X118.784 Y93.97 F7800
;TYPE:External perimeter
G1 F900
G1 X117.641 Y93.97 E2.69808
G1 X118.378 Y93.33 E2.745
G1 X120.273 Y92.395 E2.84662
;TYPE:Overhang perimeter
;WIDTH:0.4
;HEIGHT:0.4
M106 S255
G1 X122.297 Y92.074 E2.95373
G1 X124.322 Y92.395 E3.06083
M106 S242.25
;TYPE:External perimeter
;WIDTH:0.45
;HEIGHT:0.3
G1 X126.217 Y93.33 E3.16246
G1 X126.953 Y93.97 E3.20938
G1 X118.844 Y93.97 E3.59939
G1 X118.575 Y93.629 F7800
G1 X119.921 Y93.213
;TYPE:Gap fill
;WIDTH:0.592097
G1 F1200
G1 X121.283 Y93.107 E3.68931
G1 E1.68931 F2400
G92 E0
G1 X123.312 Y93.107 F7800
G1 E2 F2400
;WIDTH:0.5921
G1 F1200
G1 X123.993 Y93.16 E2.04496
;WIDTH:0.553399
G1 X124.674 Y93.213 E2.08662
M106 S232.05
;LAYER_CHANGE
;Z:1.55
;HEIGHT:0.3
G1 Z1.55 F7800
G1 E.08662 F2400
G92 E0
G1 X76.525 Y93.232 F7800
G1 E2 F2400
;TYPE:Perimeter
;WIDTH:0.45
G1 F900
G1 X76.481 Y93.407 E2.00867
G1 X69.174 Y93.407 E2.36008
G1 X69.135 Y93.223 E2.36911
G1 X70.032 Y92.881 E2.41525
G1 X70.744 Y92.675 E2.45089
G1 X71.445 Y92.528 E2.48537
G1 X72.137 Y92.44 E2.51891
G1 X72.792 Y92.412 E2.55044
G1 X74.62 Y92.594 E2.63879
G1 X76.317 Y93.12 E2.72427
G1 X76.472 Y93.203 E2.73271
G1 X76.655 Y92.864 F7800
G1 F900
G1 X78.052 Y93.618 E2.80903
G1 X78.007 Y93.792 E2.8177
G1 X67.515 Y93.792 E3.32237
G1 X67.468 Y93.622 E3.33087
G1 X68.413 Y93.121 E3.38229
G1 X69.166 Y92.788 E3.42189
G1 X69.912 Y92.515 E3.46011
G1 X70.65 Y92.301 E3.49709
G1 X71.381 Y92.148 E3.533
G1 X72.104 Y92.056 E3.56806
G1 X72.803 Y92.025 E3.60169
G1 X74.697 Y92.214 E3.69323
G1 X76.467 Y92.763 E3.78239
G1 X76.602 Y92.836 E3.78976
G1 E1.78976 F2400
G92 E0
G1 X79.149 Y94.178 F7800
G1 E2 F2400
