; generated by PrusaSlicer 2.4.0 on 2023-02-15 at 14:39:57 UTC

; 

; external perimeters extrusion width = 0.45mm
; perimeters extrusion width = 0.45mm
; infill extrusion width = 0.45mm
; solid infill extrusion width = 0.45mm
; top infill extrusion width = 0.40mm
; first layer extrusion width = 0.70mm

M107
M104 S200 ; set temperature
;TYPE:Custom
G28 ; home all axes
G1 Z5 F5000 ; lift nozzle
M109 S200 ; set temperature and wait for it to be reached
G21 ; set units to millimeters
G90 ; use absolute coordinates
M82 ; use absolute distances for extrusion
G92 E0
; Filament gcode
M107
;LAYER_CHANGE
;Z:0.35
;HEIGHT:0.35
G1 Z.35 F7800
G1 E-2 F2400
G92 E0
G1 X81.473 Y59.794 F7800
G1 E2 F2400
;TYPE:Skirt/Brim
;WIDTH:0.7
G1 F1800
G1 X83.391 Y58.098 E2.23284
G1 X85.54 Y57.295 E2.44138
G1 X87.942 Y57.291 E2.65981
G1 X89.326 Y57.691 E2.79082
G1 X139.295 Y78.221 E7.70301
G1 X140.956 Y79.204 E7.87854
G1 X142.802 Y81.36 E8.13663
G1 X142.977 Y81.686 E8.17032
G1 X143.695 Y83.865 E8.37886
G1 X143.503 Y86.658 E8.63349
G1 X142.841 Y88.509 E8.81224
G1 X141.664 Y90.477 E9.02078
G1 X139.886 Y91.926 E9.22932
G1 X137.991 Y92.632 E9.41316
G1 X136.759 Y92.886 E9.52754
G1 X134.467 Y92.954 E9.73608
G1 X132.661 Y92.421 E9.90729
G1 X83.817 Y70.04 E14.79269
G1 X81.929 Y68.738 E15.00124
G1 X80.598 Y66.87 E15.20978
G1 X79.983 Y64.661 E15.41832
G1 X80.159 Y62.374 E15.62686
G1 X81.446 Y59.847 E15.88468
G1 E13.88468 F2400
G92 E0
G1 X109.904 Y73.75 F7800
G1 E2 F2400
;TYPE:External perimeter
;WIDTH:0.932969
G1 F1800
G1 X112.005 Y74.639 E2.28474
;WIDTH:0.981498
G1 X114.105 Y75.529 E2.58559
;WIDTH:1.03003
G1 X116.205 Y76.418 E2.90254
;WIDTH:1.07856
G1 X118.306 Y77.308 E3.23561
;WIDTH:1.12709
G1 X120.406 Y78.198 E3.58478
G1 E1.58478 F2400
G92 E0
G1 X109.904 Y73.75 F7800
G1 E2 F2400
;WIDTH:0.88444
G1 F1800
G1 X107.804 Y72.86 E2.26863
;WIDTH:0.835911
G1 X101.503 Y70.191 E3.0262
;WIDTH:0.690323
G1 X99.402 Y69.302 E3.23041
;WIDTH:0.641794
G1 X97.302 Y68.412 E3.4185
;WIDTH:0.593265
G1 X95.201 Y67.522 E3.59048
;WIDTH:0.544736
G1 X93.101 Y66.633 E3.74636
;WIDTH:0.496207
G1 X91.001 Y65.743 E3.88613
;WIDTH:0.447678
G1 X88.9 Y64.853 E4.00979
;WIDTH:0.399149
G1 X86.8 Y63.964 E4.11735
;WIDTH:0.350621
G1 X86.787 Y63.913 E4.11946
;WIDTH:0.316263
G1 X86.774 Y63.861 E4.12132
;WIDTH:0.281906
G1 X86.761 Y63.81 E4.1229
G1 E2.1229 F2400
G92 E0
G1 X127.091 Y80.748 F7800
G1 E2 F2400
;WIDTH:0.7
G1 F1800
G1 X136.602 Y84.656 E2.93503
G1 X136.692 Y84.723 E2.94524
G1 X136.767 Y84.864 E2.95977
G1 X136.394 Y85.84 E3.05475
G1 X135.635 Y85.997 E3.12523
G1 X135.161 Y84.834 E3.23939
G1 X120.656 Y78.505 E4.67841
G1 X120.801 Y78.163 E4.71214
G1 X127.035 Y80.725 E5.32501
G1 X127.151 Y81.143 F7800
G1 E3.32501 F2400
G92 E0
G1 X135.108 Y84.425 F7800
G1 E2 F2400
;TYPE:Gap fill
;WIDTH:0.165528
G1 F1800
G1 X135.421 Y84.557 E2.00446
;WIDTH:0.181403
G1 X136.315 Y85.171 E2.02125
;LAYER_CHANGE
;Z:0.65
;HEIGHT:0.3
G1 Z.65 F7800
G1 X135.653 Y86.067
;TYPE:Perimeter
;WIDTH:0.45
G1 F3600
G1 X135.451 Y86.596 E2.04851
;TYPE:Overhang perimeter
;WIDTH:0.4
;HEIGHT:0.4
G1 X134.866 Y88.127 E2.13412
G1 X132.692 Y88.575 E2.25009
G1 X131.337 Y85.252 E2.43758
G1 X86.8 Y65.819 E4.97631
G1 X87.463 Y65.016 E5.0307
G1 X102.958 Y71.383 E5.90589
;TYPE:Perimeter
;WIDTH:0.45
;HEIGHT:0.3
G1 X135.459 Y84.737 E7.59588
G1 X135.716 Y84.931 E7.61137
G1 X135.921 Y85.313 E7.63226
G1 X135.859 Y85.529 E7.64307
G1 X135.675 Y86.011 E7.66785
G1 X136.224 Y85.654 F7800
G1 F3600
G1 X135.899 Y86.504 E7.71161
;TYPE:Overhang perimeter
;WIDTH:0.4
;HEIGHT:0.4
G1 X135.151 Y88.462 E7.82112
G1 X132.456 Y89.018 E7.96488
G1 X131.04 Y85.543 E8.16092
G1 X86.176 Y65.967 E10.71821
G1 X87.315 Y64.591 E10.81152
G1 X87.445 Y64.614 E10.81845
;TYPE:Perimeter
;WIDTH:0.45
;HEIGHT:0.3
G1 X87.538 Y64.63 E10.82297
G1 X135.652 Y84.399 E13.3248
G1 X136.016 Y84.674 E13.34675
G1 X136.335 Y85.27 E13.37926
G1 X136.241 Y85.596 E13.39561
G1 X136.75 Y85.226 F7800
;TYPE:External perimeter
G1 F1800
G1 X136.591 Y85.775 E13.42309
G1 X136.347 Y86.411 E13.45587
;TYPE:Overhang perimeter
;WIDTH:0.4
;HEIGHT:0.4
G1 F3600
G1 X135.436 Y88.797 E13.58928
G1 X132.22 Y89.46 E13.76083
G1 X130.742 Y85.833 E13.96543
G1 X85.553 Y66.116 E16.54128
G1 X86.968 Y64.406 E16.65726
;TYPE:External perimeter
;WIDTH:0.45
;HEIGHT:0.3
G1 F1800
G1 X87.16 Y64.173 E16.67177
G1 X87.645 Y64.257 E16.69546
G1 X135.844 Y84.061 E19.20172
G1 X136.316 Y84.417 E19.23014
G1 X136.721 Y85.173 E19.27138
G1 X136.41 Y85.437 F7800
G1 E17.27138 F2400
G92 E0
G1 X130.954 Y83.014 F7800
G1 E2 F2400
;TYPE:Bridge infill
;WIDTH:0.441802
;HEIGHT:0.4
G1 F3600
G1 X135.374 Y85.075 E2.31083
G1 X135.466 Y85.145 E2.31817
G1 X135.576 Y85.35 E2.333
G1 X135.465 Y85.66 E2.35402
G1 X125.115 Y80.834 E3.08187
G1 X115.326 Y76.812 E3.75638
G1 X135.289 Y86.121 E5.16025
G1 X135.113 Y86.581 E5.19168
G1 X105.537 Y72.79 E7.27156
G1 X95.748 Y68.768 E7.94607
G1 X115.92 Y78.174 E9.36463
G1 X131.586 Y85.01 E10.45401
G1 X131.822 Y85.589 E10.49391
G1 X134.937 Y87.042 E10.71294
G1 X134.761 Y87.502 E10.74437
G1 X132.095 Y86.259 E10.93181
G1 X132.368 Y86.929 E10.97793
G1 X134.426 Y87.889 E11.12266
G1 X133.62 Y88.056 E11.17516
G1 X132.371 Y87.474 E11.26294
G1 E9.26294 F2400
G92 E0
G1 X105.187 Y73.712 F7800
G1 E2 F2400
G1 F3600
G1 X87.318 Y65.379 E3.25666
;LAYER_CHANGE
;Z:0.95
;HEIGHT:0.3
G1 Z.95 F7800
G1 E1.25666 F2400
G92 E0
G1 X135.549 Y86.431 F7800
G1 E2 F2400
;TYPE:Perimeter
;WIDTH:0.45
G1 F3600
G1 X134.397 Y89.445 E2.15517
;TYPE:Overhang perimeter
;WIDTH:0.4
;HEIGHT:0.4
G1 X133.896 Y90.756 E2.22848
G1 X129.61 Y91.64 E2.45711
G1 X127.347 Y86.088 E2.77036
G1 X85.518 Y67.836 E5.15467
G1 X86.291 Y66.902 E5.21802
;TYPE:Perimeter
;WIDTH:0.45
;HEIGHT:0.3
G1 X87.765 Y65.121 E5.32919
G1 X88.261 Y65.207 E5.35342
G1 X134.702 Y84.289 E7.76827
G1 X135.28 Y84.725 E7.80308
G1 X135.785 Y85.667 E7.85451
G1 X135.57 Y86.375 E7.89008
G1 X136.088 Y86.008 F7800
G1 F3600
G1 X135.976 Y86.393 E7.90939
G1 X134.845 Y89.352 E8.06175
;TYPE:Overhang perimeter
;WIDTH:0.4
;HEIGHT:0.4
G1 X134.181 Y91.091 E8.15897
G1 X129.374 Y92.082 E8.41538
G1 X127.049 Y86.378 E8.73719
G1 X84.895 Y67.985 E11.14006
G1 X85.924 Y66.741 E11.22437
;TYPE:Perimeter
;WIDTH:0.45
;HEIGHT:0.3
G1 X87.61 Y64.703 E11.35163
G1 X88.368 Y64.835 E11.38865
G1 X134.895 Y83.951 E13.80793
G1 X135.579 Y84.468 E13.8492
G1 X136.199 Y85.623 E13.91225
G1 X136.105 Y85.95 E13.92861
G1 X136.613 Y85.58 F7800
;TYPE:External perimeter
G1 F1800
G1 X136.342 Y86.516 E13.97549
G1 X135.293 Y89.26 E14.11676
;TYPE:Overhang perimeter
;WIDTH:0.4
;HEIGHT:0.4
G1 F3600
G1 X134.466 Y91.426 E14.23789
G1 X129.138 Y92.525 E14.52209
G1 X126.751 Y86.669 E14.85245
G1 X84.271 Y68.134 E17.27389
G1 X85.556 Y66.581 E17.37916
;TYPE:External perimeter
;WIDTH:0.45
;HEIGHT:0.3
G1 F1800
G1 X87.456 Y64.285 E17.52251
G1 X88.476 Y64.462 E17.57232
G1 X135.087 Y83.613 E19.99602
G1 X135.879 Y84.211 E20.04375
G1 X136.585 Y85.527 E20.11555
G1 X136.273 Y85.791 F7800
G1 X135.482 Y85.347
;TYPE:Solid infill
;WIDTH:0.461246
G1 F1200
G1 X135.045 Y84.91 E20.14614
G1 X134.558 Y84.542 E20.17637
G1 X133.807 Y84.234 E20.21651
G1 X135.356 Y85.783 E20.32494
G1 X134.891 Y85.879 E20.34845
G1 X133.328 Y84.315 E20.45789
G1 X133.714 Y85.263 E20.50854
G1 X134.573 Y86.121 E20.56866
G1 E18.56866 F2400
G92 E0
G1 X132.709 Y83.934 F7800
G1 E2 F2400
;TYPE:Bridge infill
;WIDTH:0.416757
;HEIGHT:0.4
G1 F3600
G1 X131.902 Y83.558 E2.05046
G1 X129.079 Y82.326 E2.22519
G1 X121.315 Y79.136 E2.70122
G1 X132.983 Y84.577 E3.43138
G1 X133.242 Y85.213 E3.47032
G1 X112.024 Y75.319 E4.79807
G1 X102.734 Y71.501 E5.3677
G1 X133.771 Y85.974 E7.30993
G1 X134.299 Y86.221 F7800
G1 F3600
G1 X135.136 Y86.611 E7.3623
G1 X134.969 Y87.048 E7.38884
G1 X93.444 Y67.684 E9.98738
G1 X88.171 Y65.518 E10.31065
G1 X87.893 Y65.47 E10.32664
G1 X87.809 Y65.572 E10.33416
G1 X134.802 Y87.485 E13.27484
G1 X134.635 Y87.922 E13.30138
G1 X87.502 Y65.943 E16.25085
G1 X87.194 Y66.315 E16.2782
G1 X134.468 Y88.359 E19.23646
G1 X134.301 Y88.796 E19.263
G1 X86.887 Y66.687 E22.23004
G1 X86.579 Y67.058 E22.2574
G1 X116.279 Y80.908 E24.11595
G1 X127.595 Y85.845 E24.81615
G1 X127.766 Y86.264 E24.8418
G1 X134.134 Y89.233 E25.24028
G1 X133.967 Y89.67 E25.26682
G1 X128.025 Y86.9 E25.63862
G1 X128.284 Y87.536 E25.67757
G1 X133.8 Y90.108 E26.0227
G1 X133.659 Y90.476 E26.04508
G1 X133.539 Y90.501 E26.05202
G1 X128.544 Y88.172 E26.36461
G1 X128.803 Y88.808 E26.40356
G1 X132.773 Y90.659 E26.65201
G1 X132.008 Y90.817 E26.69635
G1 X129.062 Y89.443 E26.88068
G1 X129.321 Y90.079 E26.91962
G1 X131.242 Y90.975 E27.03981
G1 X130.476 Y91.133 E27.08415
G1 X129.311 Y90.589 E27.1571
G1 E25.1571 F2400
G92 E0
G1 X106.468 Y76.848 F7800
G1 E2 F2400
G1 F3600
G1 X86.082 Y67.341 E3.27573
M106 S168.3
;LAYER_CHANGE
;Z:1.25
;HEIGHT:0.3
G1 Z1.25 F7800
G1 E1.27573 F2400
G92 E0
G1 X135.426 Y86.79 F7800
G1 E2 F2400
;TYPE:Perimeter
;WIDTH:0.45
G1 F3600
G1 X135.362 Y87.012 E2.01114
G1 X133.427 Y92.074 E2.27176
;TYPE:Overhang perimeter
;WIDTH:0.4
;HEIGHT:0.4
M106 S255
G1 X132.926 Y93.384 E2.34507
G1 X126.529 Y94.704 E2.68635
G1 X123.357 Y86.923 E3.12536
G1 X84.237 Y69.854 E5.35526
G1 X85.01 Y68.92 E5.41861
M106 S168.3
;TYPE:Perimeter
;WIDTH:0.45
;HEIGHT:0.3
G1 X88.06 Y65.233 E5.64877
G1 X89.092 Y65.412 E5.69911
G1 X133.945 Y83.841 E8.03141
G1 X134.843 Y84.519 E8.08552
G1 X135.648 Y86.021 E8.16751
G1 X135.443 Y86.732 E8.2031
G1 X135.951 Y86.362 F7800
G1 F3600
G1 X135.728 Y87.135 E8.24181
G1 X133.875 Y91.981 E8.49135
;TYPE:Overhang perimeter
;WIDTH:0.4
;HEIGHT:0.4
M106 S255
G1 X133.211 Y93.719 E8.58857
G1 X126.293 Y95.147 E8.95764
G1 X123.059 Y87.214 E9.4052
G1 X83.613 Y70.003 E11.65366
G1 X84.642 Y68.759 E11.73798
M106 S168.3
;TYPE:Perimeter
;WIDTH:0.45
;HEIGHT:0.3
G1 X87.906 Y64.814 E11.98422
G1 X89.199 Y65.039 E12.04735
G1 X134.138 Y83.503 E14.38408
G1 X135.143 Y84.262 E14.44466
G1 X136.063 Y85.977 E14.53827
G1 X135.968 Y86.304 E14.55462
G1 X136.477 Y85.934 F7800
;TYPE:External perimeter
G1 F1800
G1 X136.094 Y87.258 E14.6209
G1 X134.323 Y91.889 E14.85937
;TYPE:Overhang perimeter
;WIDTH:0.4
;HEIGHT:0.4
M106 S255
G1 F3600
G1 X133.496 Y94.054 E14.9805
G1 X126.056 Y95.589 E15.37734
G1 X122.761 Y87.505 E15.83347
G1 X82.99 Y70.151 E18.10049
G1 X84.274 Y68.599 E18.20576
M106 S168.3
;TYPE:External perimeter
;WIDTH:0.45
;HEIGHT:0.3
G1 F1800
G1 X87.751 Y64.396 E18.4681
G1 X89.307 Y64.666 E18.54402
G1 X134.33 Y83.165 E20.88517
G1 X135.443 Y84.005 E20.95222
G1 X136.448 Y85.881 E21.05456
G1 X136.137 Y86.145 F7800
G1 E19.05456 F2400
G92 E0
G1 X135.094 Y87.388 F7800
G1 E2 F2400
;TYPE:Solid infill
;WIDTH:0.450334
G1 F1200
G1 X133.989 Y88.494 E2.07527
G1 X133.301 Y88.636 E2.10907
G1 X135.116 Y86.82 E2.23265
G1 X135.337 Y86.053 E2.27108
G1 X132.613 Y88.777 E2.45654
G1 X131.926 Y88.919 E2.49034
G1 X135.147 Y85.698 E2.70964
G1 X134.956 Y85.343 E2.72905
G1 X131.238 Y89.061 E2.9822
G1 X130.955 Y89.119 E2.99611
G1 X130.862 Y88.891 E3.00797
G1 X134.766 Y84.987 E3.27374
G1 X134.618 Y84.712 E3.2888
G1 X134.537 Y84.67 E3.29318
G1 X130.704 Y88.503 E3.55413
G1 X130.546 Y88.116 E3.57429
G1 X134.15 Y84.511 E3.81966
G1 X133.763 Y84.352 E3.83979
G1 X130.388 Y87.728 E4.06959
G1 X130.23 Y87.34 E4.08974
G1 X133.376 Y84.194 E4.30396
G1 X132.99 Y84.035 E4.3241
G1 X130.072 Y86.952 E4.52274
G1 X129.914 Y86.565 E4.5429
G1 X132.603 Y83.876 E4.72597
G1 X132.288 Y83.746 E4.74236
G1 X132.238 Y83.695 E4.74581
G1 X129.756 Y86.177 E4.91478
G1 X129.597 Y85.789 E4.93494
G1 X131.876 Y83.511 E5.09004
G1 X131.496 Y83.345 E5.11
G1 X129.439 Y85.401 E5.24998
G1 X129.298 Y85.055 E5.26797
G1 X129.269 Y85.026 E5.26997
G1 X131.116 Y83.179 E5.39566
G1 X130.736 Y83.014 E5.41562
G1 X129 Y84.749 E5.5338
G1 X128.73 Y84.473 E5.55238
G1 X130.356 Y82.848 E5.66304
G1 X130.214 Y82.786 E5.67048
G1 X130.303 Y82.657 E5.67802
G1 X130.089 Y82.569 E5.68917
G1 X128.461 Y84.197 E5.8
G1 X128.426 Y84.162 E5.80236
G1 X128.095 Y84.017 E5.81979
G1 X129.702 Y82.41 E5.9292
G1 X129.315 Y82.251 E5.94933
G1 X127.715 Y83.851 E6.05828
G1 X127.335 Y83.686 E6.07823
G1 X128.928 Y82.092 E6.18671
G1 X128.541 Y81.933 E6.20684
G1 X126.955 Y83.52 E6.31485
G1 X126.574 Y83.354 E6.33481
G1 X128.154 Y81.774 E6.44235
G1 X127.767 Y81.615 E6.46249
G1 X126.194 Y83.188 E6.56956
G1 X125.814 Y83.022 E6.58952
G1 X127.255 Y81.581 E6.68762
G1 X126.986 Y81.305 E6.7062
G1 X125.434 Y82.856 E6.81181
G1 X125.054 Y82.691 E6.83177
G1 X126.607 Y81.138 E6.93744
G1 X126.22 Y80.979 E6.95758
G1 X124.674 Y82.525 E7.06278
G1 X124.294 Y82.359 E7.08274
G1 X125.833 Y80.821 E7.18748
G1 X125.446 Y80.662 E7.20762
G1 X123.914 Y82.193 E7.31189
G1 X123.534 Y82.027 E7.33185
G1 X125.059 Y80.503 E7.43566
G1 X124.672 Y80.344 E7.45579
G1 X123.154 Y81.862 E7.55913
G1 X122.774 Y81.696 E7.57909
G1 X124.286 Y80.185 E7.68197
G1 X123.899 Y80.026 E7.7021
G1 X122.394 Y81.53 E7.80451
G1 X122.014 Y81.364 E7.82447
G1 X123.512 Y79.867 E7.92641
G1 X123.125 Y79.708 E7.94654
G1 X121.634 Y81.198 E8.04802
G1 X121.254 Y81.033 E8.06797
G1 X122.738 Y79.549 E8.16898
G1 X122.351 Y79.39 E8.18911
G1 X120.874 Y80.867 E8.28965
G1 X120.494 Y80.701 E8.30961
G1 X121.964 Y79.231 E8.40969
G1 X121.577 Y79.072 E8.42982
G1 X120.114 Y80.535 E8.52943
G1 X119.734 Y80.369 E8.54939
G1 X121.191 Y78.913 E8.64852
G1 X120.804 Y78.754 E8.66866
G1 X119.354 Y80.204 E8.76733
G1 X118.974 Y80.038 E8.78729
G1 X120.417 Y78.595 E8.8855
G1 X120.03 Y78.436 E8.90563
G1 X118.594 Y79.872 E9.00337
G1 X118.214 Y79.706 E9.02333
G1 X119.643 Y78.277 E9.1206
G1 X119.256 Y78.118 E9.14073
G1 X117.834 Y79.54 E9.23754
G1 X117.454 Y79.374 E9.2575
G1 X118.869 Y77.959 E9.35384
G1 X118.483 Y77.8 E9.37397
G1 X117.074 Y79.209 E9.46984
G1 X116.694 Y79.043 E9.4898
G1 X118.096 Y77.641 E9.5852
G1 X117.709 Y77.482 E9.60534
G1 X116.314 Y78.877 E9.70028
G1 X115.934 Y78.711 E9.72023
G1 X117.322 Y77.324 E9.81471
G1 X116.935 Y77.165 E9.83484
G1 X115.554 Y78.545 E9.92884
G1 X115.174 Y78.38 E9.9488
G1 X116.548 Y77.006 E10.04234
G1 X116.161 Y76.847 E10.06247
G1 X114.794 Y78.214 E10.15554
G1 X114.414 Y78.048 E10.1755
G1 X115.774 Y76.688 E10.26811
G1 X115.388 Y76.529 E10.28824
G1 X114.034 Y77.882 E10.38038
G1 X113.654 Y77.716 E10.40034
G1 X115.001 Y76.37 E10.49201
G1 X114.614 Y76.211 E10.51214
G1 X113.274 Y77.551 E10.60334
G1 X112.894 Y77.385 E10.6233
G1 X114.227 Y76.052 E10.71404
G1 X113.84 Y75.893 E10.73417
G1 X112.514 Y77.219 E10.82444
G1 X112.134 Y77.053 E10.8444
G1 X113.453 Y75.734 E10.9342
G1 X113.066 Y75.575 E10.95434
G1 X111.754 Y76.887 E11.04367
G1 X111.374 Y76.721 E11.06363
G1 X112.68 Y75.416 E11.1525
G1 X112.293 Y75.257 E11.17263
G1 X110.994 Y76.556 E11.26104
G1 X110.614 Y76.39 E11.28099
G1 X111.906 Y75.098 E11.36893
G1 X111.519 Y74.939 E11.38906
G1 X110.234 Y76.224 E11.47653
G1 X109.854 Y76.058 E11.49649
G1 X111.132 Y74.78 E11.58349
G1 X110.745 Y74.621 E11.60363
G1 X109.474 Y75.892 E11.69016
G1 X109.094 Y75.727 E11.71012
G1 X110.358 Y74.462 E11.79619
G1 X109.971 Y74.303 E11.81632
G1 X108.714 Y75.561 E11.90192
G1 X108.334 Y75.395 E11.92188
G1 X109.585 Y74.144 E12.00702
G1 X109.198 Y73.986 E12.02715
G1 X107.954 Y75.229 E12.11182
G1 X107.574 Y75.063 E12.13178
G1 X108.811 Y73.827 E12.21598
G1 X108.424 Y73.668 E12.23611
G1 X107.194 Y74.898 E12.31984
G1 X106.814 Y74.732 E12.3398
G1 X108.037 Y73.509 E12.42307
G1 X107.65 Y73.35 E12.4432
G1 X106.434 Y74.566 E12.526
G1 X106.054 Y74.4 E12.54596
G1 X107.263 Y73.191 E12.62829
G1 X106.877 Y73.032 E12.64843
G1 X105.674 Y74.234 E12.73029
G1 X105.294 Y74.069 E12.75025
G1 X106.49 Y72.873 E12.83165
G1 X106.103 Y72.714 E12.85179
G1 X104.914 Y73.903 E12.93272
G1 X104.534 Y73.737 E12.95268
G1 X105.716 Y72.555 E13.03314
G1 X105.329 Y72.396 E13.05328
G1 X104.154 Y73.571 E13.13328
G1 X103.774 Y73.405 E13.15324
G1 X104.942 Y72.237 E13.23277
G1 X104.555 Y72.078 E13.2529
G1 X103.394 Y73.239 E13.33197
G1 X103.014 Y73.074 E13.35193
G1 X104.168 Y71.919 E13.43052
G1 X103.782 Y71.76 E13.45066
G1 X102.634 Y72.908 E13.52879
G1 X102.254 Y72.742 E13.54875
G1 X103.395 Y71.601 E13.62641
G1 X103.008 Y71.442 E13.64655
G1 X101.874 Y72.576 E13.72374
G1 X101.494 Y72.41 E13.7437
G1 X102.621 Y71.283 E13.82043
G1 X102.234 Y71.124 E13.84057
G1 X101.114 Y72.245 E13.91683
G1 X100.734 Y72.079 E13.93679
G1 X101.847 Y70.965 E14.01259
G1 X101.46 Y70.806 E14.03272
