; generated by PrusaSlicer 2.4.0 on 2023-02-15 at 14:58:20 UTC

; 

; external perimeters extrusion width = 0.45mm
; perimeters extrusion width = 0.45mm
; infill extrusion width = 0.45mm
; solid infill extrusion width = 0.45mm
; top infill extrusion width = 0.40mm
; first layer extrusion width = 0.70mm

M107
M104 S200 ; set temperature
;TYPE:Custom
G28 ; home all axes
G1 Z5 F5000 ; lift nozzle
M109 S200 ; set temperature and wait for it to be reached
G21 ; set units to millimeters
G90 ; use absolute coordinates
M82 ; use absolute distances for extrusion
G92 E0
; Filament gcode
M107
;LAYER_CHANGE
;Z:0.35
;HEIGHT:0.35
G1 Z.35 F7800
G1 E-2 F2400
G92 E0
G1 X122.174 Y76.859 F7800
G1 E2 F2400
;TYPE:Skirt/Brim
;WIDTH:0.7
G1 F766
G1 X123.978 Y75.442 E2.20854
G1 X127.108 Y74.655 E2.50206
G1 X128.581 Y74.655 E2.63596
G1 X130.84 Y75.052 E2.8445
G1 X132.828 Y76.196 E3.05305
G1 X134.307 Y77.948 E3.26159
G1 X134.885 Y79.243 E3.39051
G1 X134.998 Y79.593 E3.424
G1 X135.315 Y81.865 E3.63254
G1 X134.838 Y84.108 E3.84108
G1 X133.625 Y86.055 E4.04962
G1 X131.821 Y87.471 E4.25816
G1 X128.694 Y88.255 E4.55133
G1 X127.222 Y88.255 E4.6852
G1 X124.963 Y87.858 E4.89374
G1 X122.975 Y86.715 E5.10229
G1 X121.496 Y84.962 E5.31083
G1 X120.919 Y83.671 E5.43938
G1 X120.806 Y83.321 E5.47287
G1 X120.487 Y81.05 E5.68142
G1 X120.963 Y78.806 E5.88996
G1 X122.143 Y76.91 E6.09304
G1 E4.09304 F2400
G92 E0
G1 X127.165 Y81.455 F7800
G1 E2 F2400
;TYPE:External perimeter
;WIDTH:0.425513
G1 F766
G1 X128.637 Y81.455 E2.07508
;LAYER_CHANGE
;Z:0.65
;HEIGHT:0.3
G1 Z.65 F7800
G1 X128.523 Y81.492
;WIDTH:0.45
G1 F600
G1 X128.595 Y81.715 E2.08635
G1 X127.596 Y81.715 E2.1344
G1 X127.418 Y81.164 E2.16227
G1 X128.417 Y81.164 E2.21033
G1 X128.505 Y81.435 E2.22403
G1 X128.429 Y81.707 F7800
G1 X128.303 Y81.44
;TYPE:Gap fill
;WIDTH:0.229909
G1 F600
G1 X127.71 Y81.44 E2.23629
;LAYER_CHANGE
;Z:0.95
;HEIGHT:0.3
G1 Z.95 F7800
G1 X128.736 Y81.837
;TYPE:External perimeter
;WIDTH:0.45
G1 F600
G1 X128.789 Y82.001 E2.2446
G1 X127.791 Y82.001 E2.29264
G1 X127.418 Y80.849 E2.35087
G1 X128.417 Y80.849 E2.39894
G1 X128.718 Y81.78 E2.44596
G1 X128.649 Y81.986 F7800
M106 S255
;LAYER_CHANGE
;Z:1.25
;HEIGHT:0.3
G1 Z1.25 F7800
G1 X128.828 Y81.807
G1 F600
G1 X128.983 Y82.287 E2.47023
G1 X127.985 Y82.287 E2.51824
G1 X127.418 Y80.535 E2.60684
G1 X128.417 Y80.535 E2.65491
G1 X128.81 Y81.75 E2.71634
G1 X128.616 Y82.146 F7800
G1 X128.422 Y82.094
;TYPE:Gap fill
;WIDTH:0.629369
G1 F600
G1 X127.98 Y80.727 E2.81758
;LAYER_CHANGE
;Z:1.55
;HEIGHT:0.3
G1 Z1.55 F7800
G1 X128.92 Y81.777
;TYPE:External perimeter
;WIDTH:0.45
G1 F600
G1 X129.177 Y82.573 E2.8578
G1 X128.18 Y82.573 E2.9058
G1 X127.418 Y80.22 E3.02476
G1 X128.417 Y80.22 E3.07283
G1 X128.902 Y81.72 E3.14866
G1 X128.7 Y82.111 F7800
G1 X128.616 Y82.38
;TYPE:Gap fill
;WIDTH:0.629367
G1 F600
G1 X127.98 Y80.413 E3.29439
;LAYER_CHANGE
;Z:1.85
;HEIGHT:0.3
G1 Z1.85 F7800
G1 X129.012 Y81.748
;TYPE:External perimeter
;WIDTH:0.45
G1 F600
G1 X129.372 Y82.859 E3.35058
G1 X128.374 Y82.859 E3.39855
G1 X127.418 Y79.905 E3.54788
G1 X128.417 Y79.905 E3.59595
G1 X128.994 Y81.69 E3.68619
G1 X128.786 Y82.077 F7800
G1 X128.7 Y82.325
;TYPE:Gap fill
;WIDTH:0.629367
G1 F600
G1 X127.98 Y80.098 E3.85111
G1 E1.85111 F2400
G92 E0
G1 X128.7 Y82.325 F7800
G1 E2 F2400
;WIDTH:0.628111
G1 F600
G1 X128.811 Y82.666 E2.02524
;LAYER_CHANGE
;Z:2.15
;HEIGHT:0.3
G1 Z2.15 F7800
G1 X129.104 Y81.718
;TYPE:External perimeter
;WIDTH:0.45
G1 F600
G1 X129.566 Y83.145 E2.09738
G1 X128.569 Y83.145 E2.14534
G1 X127.418 Y79.591 E2.32504
G1 X128.417 Y79.591 E2.37311
G1 X129.086 Y81.661 E2.47775
G1 X128.874 Y82.044 F7800
G1 X128.839 Y82.439
;TYPE:Gap fill
;WIDTH:0.627833
G1 F600
G1 X129.005 Y82.952 E2.51568
G1 X128.839 Y82.439 F7800
;WIDTH:0.629367
G1 F600
G1 X127.98 Y79.783 E2.71235
;LAYER_CHANGE
;Z:2.45
;HEIGHT:0.3
G1 Z2.45 F7800
G1 E.71235 F2400
G92 E0
G1 X129.197 Y81.688 F7800
G1 E2 F2400
;TYPE:External perimeter
;WIDTH:0.45
G1 F600
G1 X129.76 Y83.431 E2.0881
G1 X128.763 Y83.431 E2.13604
G1 X127.418 Y79.276 E2.34611
G1 X128.417 Y79.276 E2.39418
G1 X129.178 Y81.631 E2.51322
G1 X128.962 Y82.012 F7800
G1 X128.977 Y82.553
;TYPE:Gap fill
;WIDTH:0.627555
G1 F600
G1 X129.199 Y83.238 E2.56383
G1 X128.977 Y82.553 F7800
;WIDTH:0.629367
G1 F600
G1 X127.98 Y79.469 E2.79225
M106 S249.9
;LAYER_CHANGE
;Z:2.75
;HEIGHT:0.3
G1 Z2.75 F7800
G1 E.79225 F2400
G92 E0
G1 X134.233 Y83.818 F7800
G1 E2 F2400
;TYPE:External perimeter
;WIDTH:0.312165
G1 F1800
G1 X135.557 Y83.818 E2.04091
G1 E.04091 F2400
G92 E0
G1 X129.289 Y81.658 F7800
G1 E2 F2400
;WIDTH:0.45
G1 F900
G1 X129.954 Y83.717 E2.10406
G1 X128.958 Y83.717 E2.15198
G1 X127.418 Y78.961 E2.39242
G1 X128.417 Y78.961 E2.44048
G1 X129.27 Y81.601 E2.57393
G1 X129.051 Y81.98 F7800
G1 X129.116 Y82.667
;TYPE:Gap fill
;WIDTH:0.629367
G1 F1200
G1 X127.98 Y79.154 E2.8341
G1 E.8341 F2400
G92 E0
G1 X129.116 Y82.667 F7800
G1 E2 F2400
;WIDTH:0.627278
G1 F1200
G1 X129.394 Y83.524 E2.06328
G1 E.06328 F2400
G92 E0
G1 X116.758 Y83.853 F7800
G1 E2 F2400
;TYPE:External perimeter
;WIDTH:0.390693
G1 F1800
G1 X117.048 Y83.816 E2.01191
;WIDTH:0.428956
G1 X117.338 Y83.778 E2.02521
;WIDTH:0.43905
G1 X117.628 Y83.741 E2.03889
G1 X118.096 Y83.722 E2.06074
G1 X118.952 Y83.779 E2.10087
;WIDTH:0.391386
G1 X119.085 Y83.799 E2.10635
;WIDTH:0.351134
G1 X119.218 Y83.819 E2.11115
;WIDTH:0.310882
G1 X119.351 Y83.839 E2.11528
;WIDTH:0.27063
G1 X119.484 Y83.859 E2.11874
;WIDTH:0.230379
G1 X119.625 Y83.889 E2.12173
G1 E.12173 F2400
G92 E0
G1 X111.877 Y83.818 F7800
G1 E2 F2400
;WIDTH:0.312165
G1 F1800
G1 X113.201 Y83.818 E2.04091
G1 E.04091 F2400
G92 E0
G1 X107.683 Y83.818 F7800
G1 E2 F2400
G1 F1800
G1 X109.006 Y83.818 E2.04091
G1 E.04091 F2400
G92 E0
G1 X103.488 Y83.818 F7800
G1 E2 F2400
G1 F1800
G1 X104.812 Y83.818 E2.04091
G1 E.04091 F2400
G92 E0
G1 X100.895 Y83.891 F7800
G1 E2 F2400
;WIDTH:0.232764
G1 F1800
G1 X100.758 Y83.858 E2.00295
;WIDTH:0.271499
G1 X100.646 Y83.839 E2.00589
;WIDTH:0.310233
G1 X100.534 Y83.819 E2.00938
;WIDTH:0.348968
G1 X100.422 Y83.8 E2.01342
;WIDTH:0.387702
G1 X100.31 Y83.78 E2.01801
;WIDTH:0.432157
G1 X99.846 Y83.736 E2.03936
G1 X99.363 Y83.722 E2.06155
G1 X98.876 Y83.745 E2.08389
;WIDTH:0.458743
G1 X98.624 Y83.784 E2.09644
;WIDTH:0.412527
G1 X98.372 Y83.823 E2.10753
;WIDTH:0.366311
G1 X98.12 Y83.861 E2.11714
G1 E.11714 F2400
G92 E0
G1 X94.519 Y83.818 F7800
G1 E2 F2400
;WIDTH:0.312165
G1 F1800
G1 X93.195 Y83.818 E2.04091
G1 E.04091 F2400
G92 E0
G1 X91.113 Y83.818 F7800
G1 E2 F2400
G1 F1800
G1 X89.789 Y83.818 E2.04091
G1 E.04091 F2400
G92 E0
G1 X83.081 Y83.818 F7800
G1 E2 F2400
G1 F1800
G1 X81.712 Y83.818 E2.04229
G1 E.04229 F2400
G92 E0
G1 X76.298 Y83.818 F7800
G1 E2 F2400
G1 F1800
G1 X70.493 Y83.818 E2.17941
G1 X68.578 Y83.872 F7800
;WIDTH:0.349891
G1 F1800
G1 X68.393 Y83.836 E2.1861
;WIDTH:0.385769
G1 X68.209 Y83.8 E2.19362
;WIDTH:0.421647
G1 X68.025 Y83.763 E2.20199
;WIDTH:0.453104
G1 X67.497 Y83.722 E2.22765
G1 X66.925 Y83.746 E2.25541
;WIDTH:0.455887
G1 X66.746 Y83.762 E2.26419
;WIDTH:0.425336
G1 X66.514 Y83.797 E2.27476
;WIDTH:0.388566
G1 X66.282 Y83.831 E2.28425
;WIDTH:0.351797
G1 X66.05 Y83.866 E2.29266
G1 E.29266 F2400
G92 E0
G1 X61.784 Y83.854 F7800
G1 E2 F2400
;WIDTH:0.385941
G1 F1800
G1 X61.484 Y83.817 E2.0121
;WIDTH:0.425838
G1 X60.885 Y83.741 E2.03931
G1 X60.436 Y83.723 E2.0596
G1 X59.931 Y83.742 E2.08237
;WIDTH:0.464073
G1 X59.648 Y83.78 E2.09662
;WIDTH:0.422991
G1 X59.364 Y83.818 E2.10941
;WIDTH:0.381908
G1 X59.081 Y83.856 E2.12073
G1 E.12073 F2400
G92 E0
G1 X55.819 Y83.881 F7800
G1 E2 F2400
;WIDTH:0.305902
G1 F1800
G1 X55.651 Y83.848 E2.00518
;WIDTH:0.34398
G1 X55.482 Y83.816 E2.01117
;WIDTH:0.382058
G1 X55.313 Y83.783 E2.01799
;WIDTH:0.416827
G1 X55.18 Y83.766 E2.02387
;WIDTH:0.451596
G1 X54.721 Y83.722 E2.04613
G1 X54.402 Y83.733 E2.06155
G1 X54.016 Y83.78 E2.08034
;WIDTH:0.4462
G1 X53.63 Y83.827 E2.09886
G1 E.09886 F2400
G92 E0
G1 X47.844 Y83.818 F7800
G1 E2 F2400
;WIDTH:0.312165
G1 F1800
G1 X46.52 Y83.818 E2.04091
G1 X44.793 Y83.845 F7800
;WIDTH:0.445789
G1 F1800
G1 X44.215 Y83.737 E2.06888
G1 X43.98 Y83.722 E2.0801
G1 X43.753 Y83.732 E2.09092
G1 X43.494 Y83.776 E2.10338
;WIDTH:0.452323
G1 X43.236 Y83.819 E2.11606
G1 X42.218 Y83.837 F7800
;WIDTH:0.444341
G1 F1800
G1 X41.433 Y83.733 E2.15358
G1 X41.176 Y83.722 E2.16576
G1 X40.966 Y83.731 E2.17573
G1 X40.644 Y83.778 E2.19116
;WIDTH:0.457852
G1 X40.322 Y83.824 E2.20714
G1 E.20714 F2400
G92 E0
G1 X36.342 Y83.883 F7800
G1 E2 F2400
;WIDTH:0.234038
G1 F1800
G1 X36.147 Y83.861 E2.00415
;WIDTH:0.270361
G1 X35.952 Y83.839 E2.0092
;WIDTH:0.310383
G1 X35.385 Y83.819 E2.0266
;WIDTH:0.312102
G1 X31.883 Y83.818 E2.13478
G1 E.13478 F2400
G92 E0
G1 X138.879 Y83.818 F7800
G1 E2 F2400
;WIDTH:0.312165
G1 F1800
G1 X140.51 Y83.818 E2.05041
G1 X140.543 Y83.801 E2.05157
;WIDTH:0.27754
G1 X140.577 Y83.784 E2.05256
;WIDTH:0.242915
G1 X140.61 Y83.766 E2.0534
;WIDTH:0.208291
G1 X140.698 Y83.766 E2.05497
G1 E.05497 F2400
G92 E0
G1 X120.812 Y83.818 F7800
G1 E2 F2400
;WIDTH:0.312165
G1 F1800
G1 X126.617 Y83.818 E2.17941
M106 S234.6
;LAYER_CHANGE
;Z:3.05
;HEIGHT:0.3
G1 Z3.05 F7800
G1 E.17941 F2400
G92 E0
G1 X138.812 Y84.003 F7800
G1 E2 F2400
;WIDTH:0.45
G1 F900
G1 X139.082 Y83.605 E2.02315
G1 X140.316 Y83.605 E2.0825
G1 X140.038 Y84.003 E2.10588
G1 X138.872 Y84.003 E2.16193
G1 X139.109 Y83.734 F7800
G1 E.16193 F2400
G92 E0
G1 X135.332 Y84.003 F7800
G1 E2 F2400
G1 F900
G1 X134.458 Y84.003 E2.04203
G1 X134.458 Y83.605 E2.06119
G1 X135.332 Y83.605 E2.10322
G1 X135.332 Y83.943 E2.1195
G1 X134.936 Y83.946 F7800
G1 E.1195 F2400
G92 E0
G1 X129.381 Y81.629 F7800
G1 E2 F2400
G1 F900
G1 X130.148 Y84.003 E2.12002
G1 X129.152 Y84.003 E2.16791
G1 X127.418 Y78.646 E2.43872
G1 X128.417 Y78.646 E2.48679
G1 X129.362 Y81.571 E2.63464
G1 X129.14 Y81.948 F7800
G1 X129.255 Y82.781
;TYPE:Gap fill
;WIDTH:0.627001
G1 F1200
G1 X129.588 Y83.81 E2.71057
G1 X129.255 Y82.781 F7800
;WIDTH:0.629367
G1 F1200
G1 X127.98 Y78.839 E3.00249
G1 E1.00249 F2400
G92 E0
G1 X126.392 Y84.003 F7800
G1 E2 F2400
;TYPE:External perimeter
;WIDTH:0.45
G1 F900
G1 X121.281 Y84.003 E2.24586
G1 X121.103 Y83.605 E2.26683
G1 X126.392 Y83.605 E2.52122
G1 X126.392 Y83.943 E2.5375
G1 X125.993 Y83.993 F7800
G1 E.5375 F2400
G92 E0
G1 X116.673 Y83.84 F7800
G1 E2 F2400
G1 F900
G1 X116.82 Y83.74 E2.00854
G1 X117.212 Y83.56 E2.02932
G1 X117.632 Y83.449 E2.05018
G1 X118.11 Y83.412 E2.07325
G1 X118.591 Y83.454 E2.09648
G1 X118.938 Y83.523 E2.11348
G1 X119.272 Y83.62 E2.1302
G1 X119.754 Y83.816 E2.15523
G1 X119.717 Y84.003 E2.16438
G1 X116.723 Y84.003 E2.30839
G1 X116.69 Y83.897 E2.31373
G1 X116.838 Y83.774 F7800
G1 X117.226 Y83.789
;TYPE:Gap fill
;WIDTH:0.134485
G1 F1200
G1 X117.29 Y83.775 E2.31429
;WIDTH:0.168056
G1 X117.419 Y83.758 E2.31598
;WIDTH:0.201628
G1 X117.549 Y83.742 E2.31822
;WIDTH:0.2352
G1 X117.678 Y83.725 E2.321
;WIDTH:0.268582
G1 X118.109 Y83.708 E2.33198
;WIDTH:0.268583
G1 X118.552 Y83.727 E2.34327
;WIDTH:0.230401
G1 X118.716 Y83.744 E2.34669
;WIDTH:0.197749
G1 X118.88 Y83.76 E2.34943
;WIDTH:0.165099
G1 X119.072 Y83.787 E2.35186
G1 E.35186 F2400
G92 E0
G1 X112.976 Y83.787 F7800
G1 E2 F2400
;TYPE:External perimeter
;WIDTH:0.45
G1 F900
G1 X112.976 Y84.003 E2.01039
G1 X112.102 Y84.003 E2.05242
G1 X112.102 Y83.605 E2.07158
G1 X112.976 Y83.605 E2.11361
G1 X112.976 Y83.727 E2.1195
G1 X112.855 Y83.966 F7800
G1 E.1195 F2400
G92 E0
G1 X108.781 Y83.727 F7800
G1 E2 F2400
G1 F900
G1 X108.781 Y84.003 E2.01328
G1 X107.908 Y84.003 E2.0553
G1 X107.908 Y83.605 E2.07447
G1 X108.781 Y83.605 E2.1165
G1 X108.781 Y83.667 E2.1195
G1 X108.632 Y83.959 F7800
G1 E.1195 F2400
G92 E0
G1 X104.587 Y83.667 F7800
G1 E2 F2400
G1 F900
G1 X104.587 Y84.003 E2.01616
G1 X103.713 Y84.003 E2.05819
G1 X103.713 Y83.605 E2.07735
G1 X104.587 Y83.607 E2.11938
G1 X104.456 Y83.976 F7800
G1 E.11938 F2400
G92 E0
G1 X101.004 Y83.836 F7800
G1 E2 F2400
G1 F900
G1 X100.955 Y84.003 E2.00837
G1 X98.074 Y84.003 E2.14695
G1 X98.029 Y83.829 E2.15557
G1 X98.464 Y83.589 E2.17945
G1 X98.881 Y83.458 E2.20049
G1 X99.39 Y83.413 E2.22506
G1 X99.848 Y83.44 E2.24711
G1 X100.289 Y83.526 E2.26873
G1 X100.704 Y83.673 E2.28994
G1 X100.953 Y83.804 E2.30343
G1 X100.873 Y83.951 F7800
G1 X100.384 Y83.788
;TYPE:Gap fill
;WIDTH:0.165666
G1 F1200
G1 X100.22 Y83.76 E2.30553
;WIDTH:0.210566
G1 X100.024 Y83.737 E2.30913
;WIDTH:0.242912
G1 X99.817 Y83.721 E2.31375
;WIDTH:0.268501
G1 X99.394 Y83.708 E2.32453
;WIDTH:0.268501
G1 X98.935 Y83.729 E2.33622
;WIDTH:0.227728
G1 X98.808 Y83.748 E2.33885
;WIDTH:0.191279
G1 X98.681 Y83.768 E2.34089
;WIDTH:0.15483
G1 X98.553 Y83.787 E2.34234
G1 E.34234 F2400
G92 E0
G1 X94.294 Y83.787 F7800
G1 E2 F2400
;TYPE:External perimeter
;WIDTH:0.45
G1 F900
G1 X94.294 Y84.003 E2.01037
G1 X93.42 Y84.003 E2.0524
G1 X93.42 Y83.605 E2.07157
G1 X94.294 Y83.605 E2.11359
G1 X94.294 Y83.727 E2.1195
G1 X94.173 Y83.966 F7800
G1 E.1195 F2400
G92 E0
G1 X90.888 Y83.727 F7800
G1 E2 F2400
G1 F900
G1 X90.888 Y84.003 E2.01326
G1 X89.752 Y84.003 E2.06789
G1 X89.991 Y83.605 E2.09023
G1 X90.888 Y83.605 E2.13337
G1 X90.888 Y83.667 E2.13639
G1 X90.739 Y83.96 F7800
G1 E.13639 F2400
G92 E0
G1 X82.856 Y83.667 F7800
G1 E2 F2400
G1 F900
G1 X82.856 Y84.003 E2.01615
G1 X81.937 Y84.003 E2.06032
G1 X81.937 Y83.605 E2.07948
G1 X82.856 Y83.607 E2.12366
G1 X82.723 Y83.976 F7800
G1 E.12366 F2400
G92 E0
G1 X76.073 Y84.003 F7800
G1 E2 F2400
G1 F900
G1 X70.961 Y84.003 E2.24586
G1 X70.784 Y83.605 E2.26683
G1 X76.073 Y83.605 E2.52122
G1 X76.073 Y83.943 E2.5375
G1 X75.673 Y83.993 F7800
G1 E.5375 F2400
G92 E0
G1 X65.934 Y83.826 F7800
G1 E2 F2400
G1 F900
G1 X66.24 Y83.668 E2.01661
G1 X66.585 Y83.537 E2.03434
G1 X66.93 Y83.455 E2.05138
G1 X67.289 Y83.416 E2.06877
G1 X67.524 Y83.415 E2.08007
G1 X67.752 Y83.432 E2.09106
G1 X68.011 Y83.493 E2.10386
G1 X68.254 Y83.592 E2.11647
G1 X68.479 Y83.729 E2.12916
G1 X68.81 Y84.003 E2.14981
G1 X65.977 Y84.003 E2.28607
G1 X65.948 Y83.885 E2.29193
G1 X66.264 Y83.725 F7800
G1 X66.529 Y83.788
;TYPE:Gap fill
;WIDTH:0.154795
G1 F1200
G1 X66.655 Y83.765 E2.29338
;WIDTH:0.192639
G1 X66.816 Y83.746 E2.29597
;WIDTH:0.230484
G1 X66.977 Y83.727 E2.29932
;WIDTH:0.266324
G1 X67.306 Y83.709 E2.30762
;WIDTH:0.267041
G1 X67.513 Y83.709 E2.31287
;WIDTH:0.267042
G1 X67.708 Y83.716 E2.31779
;WIDTH:0.252281
G1 X67.819 Y83.729 E2.32042
;WIDTH:0.226363
G1 X67.931 Y83.742 E2.32269
;WIDTH:0.200442
G1 X68.049 Y83.765 E2.32472
;WIDTH:0.159411
G1 X68.166 Y83.788 E2.32614
G1 E.32614 F2400
G92 E0
G1 X61.883 Y83.838 F7800
G1 E2 F2400
;TYPE:External perimeter
;WIDTH:0.45
G1 F900
G1 X61.834 Y84.003 E2.00827
G1 X59.035 Y84.003 E2.1429
G1 X58.984 Y83.841 E2.15107
G1 X59.094 Y83.764 E2.15754
G1 X59.502 Y83.571 E2.17925
G1 X59.937 Y83.452 E2.20093
G1 X60.398 Y83.411 E2.22321
G1 X60.881 Y83.451 E2.24652
G1 X61.335 Y83.566 E2.26903
G1 X61.757 Y83.755 E2.29127
G1 X61.833 Y83.805 E2.29568
G1 X61.752 Y83.949 F7800
G1 X61.308 Y83.789
;TYPE:Gap fill
;WIDTH:0.127151
G1 F1200
G1 X61.261 Y83.779 E2.29605
;WIDTH:0.162726
G1 X61.119 Y83.761 E2.29781
;WIDTH:0.198299
G1 X60.977 Y83.743 E2.30019
;WIDTH:0.233872
G1 X60.835 Y83.726 E2.30322
;WIDTH:0.265484
G1 X60.447 Y83.71 E2.31296
;WIDTH:0.269391
G1 X60.399 Y83.708 E2.31419
;WIDTH:0.269392
G1 X59.986 Y83.726 E2.32477
;WIDTH:0.233014
G1 X59.85 Y83.744 E2.32764
;WIDTH:0.196683
G1 X59.715 Y83.762 E2.3299
;WIDTH:0.160353
G1 X59.58 Y83.78 E2.33153
;WIDTH:0.124021
G1 X59.541 Y83.789 E2.33183
G1 E.33183 F2400
G92 E0
G1 X55.922 Y83.83 F7800
G1 E2 F2400
;TYPE:External perimeter
;WIDTH:0.45
G1 F900
G1 X55.876 Y84.003 E2.00859
G1 X53.396 Y84.003 E2.1279
G1 X53.652 Y83.762 E2.1448
G1 X53.876 Y83.613 E2.15775
G1 X54.126 Y83.503 E2.1709
G1 X54.404 Y83.435 E2.18468
G1 X54.728 Y83.413 E2.20027
G1 X55.036 Y83.456 E2.21524
G1 X55.287 Y83.53 E2.22782
G1 X55.697 Y83.704 E2.24924
G1 X55.869 Y83.801 E2.25876
G1 X55.788 Y83.949 F7800
G1 X55.35 Y83.78
;TYPE:Gap fill
;WIDTH:0.198899
G1 F1200
G1 X55.164 Y83.753 E2.26192
;WIDTH:0.231681
G1 X54.977 Y83.727 E2.26584
;WIDTH:0.267733
G1 X54.718 Y83.709 E2.27245
;WIDTH:0.267731
G1 X54.449 Y83.718 E2.27927
;WIDTH:0.249052
G1 X54.227 Y83.745 E2.28442
;WIDTH:0.220082
G1 X54.005 Y83.771 E2.28876
G1 E.28876 F2400
